X:1
T:Marching to Canaan
T:Marching to Canaan
T:Henry Clay Work, 1865
T:Mark Trafton, 1890, arr. Richard W. Adams 2012
T:Public Domain Courtesy of the Cyber Hymnal™
T:Public Domain Courtesy of the Cyber Hymnal™
T:Public Domain Courtesy of the Cyber Hymnal™
C:Henry Clay Work, 1865
Z:Public Domain
Z:Courtesy of the Cyber Hymnal™
%%score ( 1 2 ) 3 ( 4 5 )
L:1/8
Q:1/4=85
M:4/4
K:Bb
V:1 treble 
V:2 treble 
V:3 treble 
V:4 bass 
V:5 bass 
V:1
 d>c Bc dFFF | G>A Bc B4 | D>E FF GFGB | c>B cd c4 | B>B cd eGGG | F<B B>c d4 | c2 c>c cc c2 | %7
w: 1.~We’re an ar- my all en- rolled of|ma- ny mill- ions strong;|All look on with won- der as we|stea- dy swing a- long;|Cheer each o- ther as we go with|this tri- umph- ant song,|As we are march- ing to|
w: 2.~Hosts of dark- ness trem- ble as our|ban- ners are un- furled;|See “the Lion of Ju- dah,” who is|bound to take the world;|Kings a- gainst His right to reign shall|from their seats be hurled,|As we are march- ing to|
w: 3.~Come a- long, ye co- horts strong, we’re|one in this cam- paign—|One in Him whose sign we bear, who|bore our guilt and shame;|Palms of vic- tory bought for all, who|bear that won- drous name,|As we are march- ing to|
w: 4.~We are har- nessed for the war, the|Spir- it’s sword we wield;|See, a “dy- ing Lamb,” em- bossed up-|on faith’s am- ple shield;|Breast- plate of a per- fect love which|scorns to sin to yield,|As we are march- ing to|
w: 5.~Soon the war will have its end, and|then this con- quering host,|An- swer- ing the last roll call up-|on that peace- ful coast,|Each re- ceives a vic- tor’s crown of|which we sang the boast,|As we were march- ing to|
w: 6.~See the grand re- view a- bove, a-|long that gold- en street,|Host be- low, and host a- bove, tri-|umph- ant shout- ing meet;|Com- rades once so missed be- low, each|o- ther joy- ous greet,|As when once march- ing to|
 B4 B2 z ||"^Refrain" [Fd] | [Ff]3 [Fd] [Ff]3 [Fd] | [GB]>[GB] [GB][EG] [GB]3 [Fd] | %11
w: Ca- naan.||||
w: Ca- naan||||
w: Ca- naan.|March|on! march on! we|sing the ju- bi- lee! March|
w: Ca- naan.||||
w: Ca- naan.||||
w: Ca- naan.||||
 [Ff]3 [Fd] [Ff]3 [Bd] | [Ac]>[Ac] [Ac][FA] [Ac]4 | B[DB][Ec][Fd] [Ge][EG][EG][EG] | %14
w: |||
w: |||
w: on! march on! the|grace that makes us free;|Fol- low- ing our cap- tain, Christ, whose|
w: |||
w: |||
w: |||
 F<[FB] [FB]>[Fc] [Fd]4 | [Ec]2 [Ec]>[Ec] [Ec][Ec] [Ec]2 | [DB]4 [DB]2 |] %17
w: |||
w: |||
w: guid- ing eye we see,|As we are march- ing to|Ca- naan.|
w: |||
w: |||
w: |||
V:2
 x8 | x8 | x8 | x8 | x8 | x4 d4 | x8 | x7 || x | x8 | x8 | x8 | x8 | B x7 | F/ x15/2 | x8 | x6 |] %17
V:3
 z2 [B,DF]2 z2 [B,DF]2 | z2 [B,EG]2 z2 [B,DF]2 | z2 [B,DF]2 z2 [B,EG]2 | z2 [G,B,C=E]2 z2 [A,CF]2 | %4
 z2 [B,DF]2 z2 [B,EG]2 | z2 [B,FB]2 z2 [DFB]2 | z2 [CEFA]2 z2 [CEFA]2 | z2 [DFB]2 [DFB]2 z || z | %9
 z2 [DFB]2 [DFB]2 [DFB]2 | z2 [EGB]2 [EGB]2 [EGB]2 | z2 [DFB]2 [DFB]2 [DFB]2 | %12
 z2 [CFA]2 [CFA]2 [CFA]2 | z2 [B,DF]2 z2 [B,EG]2 | z2 [B,FB]2 z2 [DFB]2 | %15
 z2 [CEFA]2 [CEFA]2 [CEFA]2 | z2 [DFB]2 [DFB]2 |] %17
V:4
 [B,,,B,,]4 [B,,,B,,]4 | [E,,E,]4 [B,,,B,,]4 | [B,,,B,,]4 [E,,E,]4 | [C,,C,]4 [E,,F,]4 | %4
 [B,,,B,,]4 [E,,E,]4 | [D,,F,]4 [B,,,B,,]4 | [G,,F,]4 [G,,F,]4 | [B,,,B,,]6 z || [B,,B,] | %9
 [D,B,]3 B,, [B,,D,]3 B,, | [B,,E,]>[B,,E,] [B,,E,][B,,E,] [B,,E,]3 [B,,B,] | %11
 [D,B,]3 B,, [B,,D,]3 [B,,F,] | F,>F, F,F, F,4 | %13
 [B,,D,B,][B,,_A,][B,,G,][B,,F,] [B,,E,][B,,E,][B,,E,][B,,E,] | %14
 [B,,D,]<[B,,D,] [B,,D,]>[B,,C,] B,,4 | [A,,F,]2 [A,,F,]>[A,,F,] [A,,F,][A,,F,] [A,,F,]2 | %16
 B,,4 B,,2 |] %17
V:5
 x8 | x8 | x8 | x8 | x8 | x8 | x8 | x7 || x | x3 B,, x2 B,, x | x8 | x3 B,, x4 | F,>F, F,F, F,4 | %13
 x8 | x4 B,,4 | x8 | B,,4 B,,2 |] %17

